X: 41297
T: Tundra, The
R: polka
M: 2/4
K: Dmixolydian
|:dc/d/ ed|cB AG|F>G AD|FD E2|
dc/d/ ed|cB AG|F>G AD|EG D2:|
|:D/E/F/G/ Ad|ed/e/ gf/e/|fd Ad|Bd BG|
Ad Bd|BG A2|D/E/F/G/ AD|EG D2:|

